files/2024-05-12/svg/work/cross.svg

<?xml version="1.0" encoding="UTF-8" standalone="no"?>
<!-- Created with Inkscape (http://www.inkscape.org/) -->

<svg
   width="48"
   height="48"
   viewBox="0 0 48 48"
   version="1.1"
   id="svg1"
   xml:space="preserve"
   inkscape:version="1.3.2 (091e20e, 2023-11-25, custom)"
   sodipodi:docname="cross.svg"
   xmlns:inkscape="http://www.inkscape.org/namespaces/inkscape"
   xmlns:sodipodi="http://sodipodi.sourceforge.net/DTD/sodipodi-0.dtd"
   xmlns="http://www.w3.org/2000/svg"
   xmlns:svg="http://www.w3.org/2000/svg"><sodipodi:namedview
     id="namedview1"
     pagecolor="#505050"
     bordercolor="#eeeeee"
     borderopacity="1"
     inkscape:showpageshadow="0"
     inkscape:pageopacity="0"
     inkscape:pagecheckerboard="0"
     inkscape:deskcolor="#505050"
     inkscape:document-units="px"
     inkscape:zoom="12.683728"
     inkscape:cx="32.127778"
     inkscape:cy="19.513191"
     inkscape:window-width="1920"
     inkscape:window-height="1057"
     inkscape:window-x="-8"
     inkscape:window-y="-8"
     inkscape:window-maximized="1"
     inkscape:current-layer="svg1" /><defs
     id="defs1" /><path
     id="rect1"
     style="fill:none;stroke:#ffffff;stroke-width:1;stroke-linecap:round;stroke-linejoin:round;stroke-opacity:1"
     d="M 30.020229,17.979771 V 5.5 H 17.979771 V 17.979771 M 30.020229,30.020229 H 42.5 V 17.979771 H 30.020229 M 17.979771,30.020229 V 42.5 H 30.020229 V 30.020229 M 17.979771,17.979771 H 5.5 v 12.040458 h 12.479771"
     sodipodi:nodetypes="cccccccccccccccc" /></svg>

<?xml version="1.0" encoding="UTF-8"?>
<!-- Created with Inkscape (http://www.inkscape.org/) -->
<svg width="48" height="48" version="1.1" viewBox="0 0 48 48" xml:space="preserve" xmlns="http://www.w3.org/2000/svg"><path d="m30.02 17.98v-12.48h-12.04v12.48m12.04 12.04h12.48v-12.04h-12.48m-12.04 12.04v12.48h12.04v-12.48m-12.04-12.04h-12.48v12.04h12.48" fill="none" stroke="#fff" stroke-linecap="round" stroke-linejoin="round"/></svg>
